devices/symbolic/computer-laptop-symbolic.svg

<svg xmlns="http://www.w3.org/2000/svg" viewBox="0 0 16 16">
  <defs id="defs3051">
    <style type="text/css" id="current-color-scheme">
      .ColorScheme-Text {
        color:#4d4d4d;
      }
      </style>
  </defs>
 <path 
     style="fill:#bebebe;fill-opacity:1;stroke:none" 
     class="ColorScheme-Text"
     d="M 2.1347656 2.6660156 C 1.4532841 2.6660156 0.88867188 3.2286749 0.88867188 3.9101562 L 0.88867188 11.554688 L 0 11.554688 L 0 12 C 0 12.755556 0.57842877 13.333984 1.3339844 13.333984 L 14.666016 13.333984 C 15.421572 13.333984 16 12.755556 16 12 L 16 11.554688 L 15.154297 11.554688 L 15.154297 3.9101562 A 0.44448889 0.44448889 0 0 0 15.152344 3.8671875 C 15.086891 3.2125703 14.546716 2.6660156 13.865234 2.6660156 L 2.1347656 2.6660156 z M 2.1347656 3.5546875 L 13.865234 3.5546875 C 14.070479 3.5546875 14.239402 3.7188188 14.265625 3.9492188 L 14.265625 11.554688 L 1.7773438 11.554688 L 1.7773438 3.9101562 C 1.7773438 3.7027488 1.9273583 3.5546875 2.1347656 3.5546875 z "
     />
</svg>

<svg xmlns="http://www.w3.org/2000/svg" viewBox="0 0 16 16">
  <path fill="#bebebe" d="M2.135 2.666c-.682 0-1.246.563-1.246 1.244v7.645H0V12a1.31 1.31 0 0 0 1.334 1.334h13.332A1.31 1.31 0 0 0 16 12v-.445h-.846V3.91a.444.444 0 0 0-.002-.043c-.065-.654-.605-1.201-1.287-1.201H2.135zm0 .889h11.73c.205 0 .374.164.4.394v7.606H1.778V3.91c0-.207.15-.355.358-.355z"/>
</svg>
